public/Download/telegram.svg

<?xml version="1.0" encoding="UTF-8"?>
<svg xmlns="http://www.w3.org/2000/svg" xmlns:xlink="http://www.w3.org/1999/xlink" viewBox="0 0 24 24" width="24px" height="24px">
<g id="surface43208317">
<path style=" stroke:none;fill-rule:nonzero;fill:rgb(100%,100%,100%);fill-opacity:1;" d="M 20.570312 3.011719 C 20.238281 2.976562 19.878906 3.027344 19.515625 3.171875 C 19.066406 3.347656 12.015625 6.316406 5.441406 9.082031 L 3.269531 9.996094 C 2.429688 10.335938 2.003906 10.890625 2.003906 11.636719 C 2.003906 12.160156 2.226562 12.871094 3.28125 13.289062 L 6.949219 14.757812 C 7.265625 15.707031 8 17.917969 8.1875 18.503906 C 8.296875 18.851562 8.574219 19.730469 9.277344 19.933594 C 9.417969 19.984375 9.570312 20.007812 9.722656 20.007812 C 10.164062 20.007812 10.484375 19.800781 10.640625 19.683594 L 12.972656 17.710938 L 15.800781 20.328125 C 15.910156 20.4375 16.488281 21 17.261719 21 C 18.230469 21 18.960938 20.195312 19.117188 19.414062 C 19.199219 18.988281 21.929688 5.285156 21.929688 5.289062 C 22.171875 4.191406 21.730469 3.621094 21.449219 3.375 C 21.207031 3.167969 20.90625 3.046875 20.574219 3.011719 Z M 19.910156 5.171875 C 19.53125 7.0625 17.476562 17.378906 17.164062 18.863281 L 13.027344 15.039062 L 10.222656 17.417969 L 11 14.375 C 11 14.375 16.363281 8.945312 16.683594 8.628906 C 16.945312 8.378906 17 8.289062 17 8.199219 C 17 8.085938 16.941406 8 16.800781 8 C 16.675781 8 16.507812 8.121094 16.414062 8.175781 C 15.273438 8.886719 10.402344 11.664062 8.007812 13.027344 L 4.53125 11.636719 L 6.21875 10.929688 C 10.519531 9.117188 18.175781 5.894531 19.910156 5.171875 Z M 19.910156 5.171875 "/>
</g>
</svg>

<svg xmlns="http://www.w3.org/2000/svg" width="24" height="24"><path d="M20.57 3.012a2.222 2.222 0 0 0-1.054.16c-.45.176-7.5 3.144-14.075 5.91l-2.171.914c-.84.34-1.266.895-1.266 1.64 0 .524.223 1.235 1.277 1.653l3.668 1.469c.317.949 1.051 3.16 1.239 3.746.109.348.386 1.226 1.09 1.43.14.05.292.074.445.074.441 0 .761-.207.918-.324l2.332-1.973 2.828 2.617c.11.11.687.672 1.46.672.97 0 1.7-.805 1.856-1.586.082-.426 2.813-14.129 2.813-14.125.242-1.098-.2-1.668-.48-1.914a1.585 1.585 0 0 0-.876-.363zm-.66 2.16c-.379 1.89-2.433 12.207-2.746 13.691l-4.137-3.824-2.804 2.379.777-3.043s5.363-5.43 5.684-5.746c.261-.25.316-.34.316-.43 0-.113-.059-.199-.2-.199-.124 0-.292.121-.386.176-1.14.71-6.012 3.488-8.406 4.851l-3.477-1.39 1.688-.707c4.3-1.813 11.957-5.035 13.691-5.758zm0 0" fill="#000"/></svg>
